;FLAVOR:Marlin
;TIME:719
;Filament used: 0.838784m
;Layer height: 0.25
;MINX:74.65
;MINY:78.4
;MINZ:0.3
;MAXX:125.35
;MAXY:121.6
;MAXZ:5.05
;Generated with Cura_SteamEngine 5.0.0
M140 S60
M105
M190 S60
M104 S210
M105
M109 S210
M82 ;absolute extrusion mode
G21 ;metric values
G90 ;absolute positioning
M82 ;set extruder to absolute mode
M107 ;start with the fan off
G28 X0 Y0 ;move X/Y to min endstops
G28 Z0 ;move Z to min endstops
G1 Z15.0 F9000 ;move the platform down 15mm
G92 E0 ;zero the extruded length
G1 F200 E3 ;extrude 3mm of feed stock
G92 E0 ;zero the extruded length again
G1 F9000
;Put printing message on LCD screen
M117 Printing...
G92 E0
G92 E0
G1 F1500 E-6.5
;LAYER_COUNT:20
;LAYER:0
M107
G0 F3600 X83.178 Y79.498 Z0.3
G0 X81.2 Y82.186
;TYPE:SKIRT
G1 F1500 E0
G1 F1800 X82.834 Y79.909 E0.13982
G1 X83.178 Y79.498 E0.16656
G1 X83.58 Y79.143 E0.19332
G1 X84.029 Y78.851 E0.22004
G1 X84.518 Y78.629 E0.24683
G1 X85.034 Y78.483 E0.27359
G1 X85.657 Y78.41 E0.30488
G1 X86.08 Y78.4 E0.32599
G1 X113.594 Y78.4 E1.69867
G1 X114.296 Y78.41 E1.7337
G1 X114.83 Y78.458 E1.76045
G1 X115.352 Y78.584 E1.78724
G1 X115.848 Y78.787 E1.81397
G1 X116.309 Y79.061 E1.84073
G1 X116.725 Y79.4 E1.8675
G1 X117.175 Y79.918 E1.90173
G1 X118.039 Y81.129 E1.97595
G1 X119.674 Y83.341 E2.11318
G1 X121.34 Y85.466 E2.2479
G1 X123.097 Y87.58 E2.38504
G1 X123.923 Y88.519 E2.44743
G1 X124.475 Y89.164 E2.48978
G1 X124.792 Y89.597 E2.51656
G1 X125.042 Y90.071 E2.54329
G1 X125.219 Y90.578 E2.57008
G1 X125.318 Y91.105 E2.59684
G1 X125.348 Y91.719 E2.62751
G1 X125.35 Y117.309 E3.9042
G1 X125.341 Y118.036 E3.94047
G1 X125.294 Y118.57 E3.96721
G1 X125.169 Y119.091 E3.99394
G1 X124.967 Y119.588 E4.02071
G1 X124.694 Y120.05 E4.04748
G1 X124.356 Y120.466 E4.07422
G1 X123.959 Y120.827 E4.10099
G1 X123.513 Y121.125 E4.12775
G1 X123.028 Y121.353 E4.15449
G1 X122.514 Y121.507 E4.18126
G1 X121.842 Y121.59 E4.21504
G1 X121.42 Y121.6 E4.2361
G1 X78.911 Y121.6 E6.35688
G1 X78.213 Y121.591 E6.39171
G1 X77.678 Y121.544 E6.4185
G1 X77.157 Y121.418 E6.44525
G1 X76.66 Y121.216 E6.47201
G1 X76.199 Y120.943 E6.49874
G1 X75.783 Y120.604 E6.52551
G1 X75.422 Y120.208 E6.55225
G1 X75.124 Y119.762 E6.57901
G1 X74.896 Y119.276 E6.60579
G1 X74.743 Y118.762 E6.63255
G1 X74.66 Y118.088 E6.66643
G1 X74.65 Y117.658 E6.68789
G1 X74.651 Y92.136 E7.96118
G1 X74.665 Y91.428 E7.99651
G1 X74.715 Y90.894 E8.02327
G1 X74.844 Y90.373 E8.05005
G1 X75.05 Y89.878 E8.0768
G1 X75.326 Y89.418 E8.10356
G1 X76.066 Y88.547 E8.16058
G1 X77.816 Y86.5 E8.29494
G1 X79.572 Y84.324 E8.43444
G1 X81.2 Y82.186 E8.56851
G1 F1500 E2.06851
G0 F3600 X78.148 Y86.728
G1 F1500 E8.56851
G1 F1800 X79.859 Y84.608 E8.70443
G1 X81.527 Y82.416 E8.84185
G1 X83.159 Y80.143 E8.98145
G1 X83.485 Y79.757 E9.00666
G1 X83.868 Y79.427 E9.03188
G1 X84.298 Y79.161 E9.0571
G1 X84.765 Y78.967 E9.08233
G1 X85.257 Y78.849 E9.10758
G1 X85.991 Y78.801 E9.14427
G1 X113.589 Y78.8 E10.52114
G1 X114.291 Y78.81 E10.55617
G1 X114.794 Y78.857 E10.58137
G1 X115.284 Y78.983 E10.60662
G1 X115.747 Y79.185 E10.63182
G1 X116.174 Y79.456 E10.65705
G1 X116.552 Y79.792 E10.68228
G1 X116.85 Y80.151 E10.70556
G1 X117.728 Y81.381 E10.78095
G1 X119.337 Y83.557 E10.91597
G1 X121.05 Y85.744 E11.05456
G1 X122.773 Y87.817 E11.18905
G1 X123.619 Y88.779 E11.25296
G1 X124.171 Y89.424 E11.29531
G1 X124.469 Y89.833 E11.32056
G1 X124.698 Y90.284 E11.3458
G1 X124.853 Y90.765 E11.37101
G1 X124.938 Y91.407 E11.40332
G1 X124.95 Y91.83 E11.42443
G1 X124.95 Y117.304 E12.69533
G1 X124.941 Y118.031 E12.7316
G1 X124.895 Y118.534 E12.7568
G1 X124.77 Y119.024 E12.78203
G1 X124.569 Y119.488 E12.80726
G1 X124.298 Y119.915 E12.83249
G1 X123.963 Y120.294 E12.85773
G1 X123.573 Y120.615 E12.88293
G1 X123.137 Y120.871 E12.90815
G1 X122.666 Y121.054 E12.93336
G1 X122.172 Y121.162 E12.95859
G1 X121.51 Y121.199 E12.99167
G1 X78.916 Y121.2 E15.11669
G1 X78.218 Y121.191 E15.15152
G1 X77.714 Y121.144 E15.17677
G1 X77.224 Y121.019 E15.202
G1 X76.76 Y120.818 E15.22723
G1 X76.334 Y120.547 E15.25242
G1 X75.955 Y120.212 E15.27766
G1 X75.634 Y119.821 E15.30289
G1 X75.379 Y119.385 E15.32809
G1 X75.195 Y118.914 E15.35332
G1 X75.088 Y118.42 E15.37854
G1 X75.051 Y117.744 E15.41231
G1 X75.051 Y92.144 E16.6895
G1 X75.065 Y91.436 E16.72483
G1 X75.115 Y90.933 E16.75005
G1 X75.243 Y90.444 E16.77527
G1 X75.447 Y89.981 E16.80051
G1 X75.861 Y89.385 E16.83672
G1 X76.367 Y88.811 E16.87489
G1 X78.148 Y86.728 E17.01162
G1 F1500 E10.51162
G0 F3600 X80.01 Y91.42
;TYPE:SUPPORT
G1 F1500 E17.01162
G1 F1800 X80.01 Y118.08 E18.34169
G0 F3600 X78.169 Y117.348
G1 F1800 X121.829 Y117.348 E20.5199
G0 F3600 X120.015 Y118.08
G1 F1800 X120.015 Y91.42 E21.84997
G0 F3600 X121.829 Y93.345
G1 F1800 X114.869 Y93.345 E22.19721
G0 F3600 X114.869 Y96.012
G1 F1800 X121.829 Y96.012 E22.54444
G0 F3600 X121.829 Y98.679
G1 F1800 X114.869 Y98.679 E22.89168
G0 F3600 X114.869 Y101.346
G1 F1800 X121.829 Y101.346 E23.23892
G0 F3600 X121.829 Y104.013
G1 F1800 X114.869 Y104.013 E23.58615
G0 F3600 X114.869 Y106.68
G1 F1800 X121.829 Y106.68 E23.93339
G0 F3600 X121.829 Y109.347
G1 F1800 X114.869 Y109.347 E24.28062
G0 F3600 X114.681 Y111.12
G1 F1800 X114.681 Y118.08 E24.62786
G0 F3600 X112.014 Y118.08
G1 F1800 X112.014 Y111.12 E24.97509
G0 F3600 X109.347 Y111.12
G1 F1800 X109.347 Y118.08 E25.32233
G0 F3600 X106.68 Y118.08
G1 F1800 X106.68 Y111.12 E25.66957
G0 F3600 X104.013 Y111.12
G1 F1800 X104.013 Y118.08 E26.0168
G0 F3600 X101.346 Y118.08
G1 F1800 X101.346 Y111.12 E26.36404
G0 F3600 X98.679 Y111.12
G1 F1800 X98.679 Y118.08 E26.71127
G0 F3600 X96.012 Y118.08
G1 F1800 X96.012 Y111.12 E27.05851
G0 F3600 X93.345 Y111.12
G1 F1800 X93.345 Y118.08 E27.40574
G0 F3600 X90.678 Y118.08
G1 F1800 X90.678 Y111.12 E27.75298
G0 F3600 X88.011 Y111.12
G1 F1800 X88.011 Y118.08 E28.10022
G0 F3600 X85.344 Y118.08
G1 F1800 X85.344 Y111.12 E28.44745
G0 F3600 X85.129 Y109.347
G1 F1800 X78.169 Y109.347 E28.79469
G0 F3600 X78.169 Y112.014
G1 F1800 X121.829 Y112.014 E30.97289
G0 F3600 X121.829 Y114.681
G1 F1800 X78.169 Y114.681 E33.1511
G1 F1500 E26.6511
G0 F3600 X82.677 Y118.08
G1 F1500 E33.1511
G1 F1800 X82.677 Y91.42 E34.48117
G1 F1500 E27.98117
G0 F3600 X85.085 Y93.345
G0 X85.129 Y93.345
G1 F1500 E34.48117
G1 F1800 X78.169 Y93.345 E34.82841
G0 F3600 X78.169 Y96.012
G1 F1800 X85.129 Y96.012 E35.17564
G0 F3600 X85.129 Y98.679
G1 F1800 X78.169 Y98.679 E35.52288
G0 F3600 X78.169 Y101.346
G1 F1800 X85.129 Y101.346 E35.87012
G0 F3600 X85.129 Y104.013
G1 F1800 X78.169 Y104.013 E36.21735
G0 F3600 X78.169 Y106.68
G1 F1800 X85.129 Y106.68 E36.56459
G1 F1500 E30.06459
G0 F3600 X85.085 Y106.68
G0 X85.097 Y111.153
G0 X117.348 Y118.08
G1 F1500 E36.56459
G1 F1800 X117.348 Y91.42 E37.89466
G1 F1500 E31.39466
;MESH:support ecran_mod002.STL
G0 F3600 X114.915 Y90.576
G0 X113.826 Y90.576
G0 X86.313 Y90.39
G1 F1500 E37.89466
G0 F3600 X86.313 Y91
;TYPE:WALL-OUTER
G1 F1860.5 X86.5 Y90.8 E37.90788
G1 F1800 X113.5 Y90.8 E39.25491
G1 F1860.5 X113.687 Y91 E39.26813
G1 F1920 X113.687 Y94.758 E39.4439
G1 X113.687 Y98.516 E39.61967
G1 F1914.9 X113.687 Y102.274 E39.79591
G1 X113.687 Y106.032 E39.97214
G1 F1909.8 X113.687 Y106.033 E39.97219
G1 F1855.7 X113.5 Y106.2 E39.98432
G1 F1800 X86.5 Y106.2 E41.33136
G1 F1860.5 X86.313 Y106 E41.34458
G1 F1920 X86.313 Y91 E42.04616
G0 F3600 X86.449 Y90.854
G0 X85.95 Y90.25
G1 F1860.5 X85.937 Y91 E42.08236
G1 F1920 X85.937 Y106 E42.78394
G1 F1860.5 X85.95 Y106.75 E42.82015
G1 F1800 X85.95 Y110.3 E42.99726
G1 X114.05 Y110.3 E44.39918
G1 X114.05 Y106.75 E44.57629
G1 F1855.7 X114.062 Y106.065 E44.60944
G1 F1914.9 X114.062 Y102.299 E44.78605
G1 X114.062 Y98.533 E44.96267
G1 F1920 X114.062 Y94.767 E45.13881
G1 X114.062 Y91.001 E45.31496
G1 F1860.5 X114.05 Y90.25 E45.35121
G1 F1800 X114.05 Y86.5 E45.5383
G1 X114.05 Y82.2 E45.75283
G1 X85.95 Y82.2 E47.15474
G1 X85.95 Y90.25 E47.55636
G0 F3600 X85.947 Y90.45
G0 X86.5 Y90.4
;TYPE:WALL-INNER
G1 F1800 X113.5 Y90.4 E48.90339
G1 X113.65 Y90.55 E48.91398
G1 X113.65 Y86.5 E49.11603
G1 X113.65 Y82.6 E49.3106
G1 X86.35 Y82.6 E50.67261
G1 X86.35 Y90.55 E51.06923
G1 X86.5 Y90.4 E51.07982
G1 F1500 E44.57982
G0 F3600 X86.5 Y90.39
G0 X87.153 Y91.653
G0 X87.153 Y105.347
G0 X86.5 Y106.43
G1 F1500 E51.07982
G0 F3600 X86.5 Y106.6
G1 F1800 X86.35 Y106.474 E51.08959
G1 X86.35 Y109.9 E51.26051
G1 X113.65 Y109.9 E52.62252
G1 X113.65 Y106.475 E52.79339
G1 X113.5 Y106.6 E52.80313
G1 X86.5 Y106.6 E54.15017
G0 F3600 X86.73 Y106.98
;TYPE:SKIN
G1 F1800 X86.73 Y109.52 E54.27689
G1 X113.27 Y109.52 E55.60097
G1 X113.27 Y108.25 E55.66433
G1 X113.27 Y106.98 E55.72769
G1 X86.73 Y106.98 E57.05178
G0 F3600 X87.257 Y109.319
G1 F1800 X86.929 Y108.991 E57.07492
G0 F3600 X86.929 Y108.425
G1 F1800 X87.823 Y109.319 E57.138
G0 F3600 X88.389 Y109.319
G1 F1800 X86.929 Y107.859 E57.24101
G0 F3600 X86.929 Y107.294
G1 F1800 X88.954 Y109.319 E57.38388
G0 F3600 X89.52 Y109.319
G1 F1800 X87.38 Y107.179 E57.53487
G0 F3600 X87.946 Y107.179
G1 F1800 X90.086 Y109.319 E57.68586
G0 F3600 X90.651 Y109.319
G1 F1800 X88.512 Y107.179 E57.83681
G0 F3600 X89.077 Y107.179
G1 F1800 X91.217 Y109.319 E57.9878
G0 F3600 X91.783 Y109.319
G1 F1800 X89.643 Y107.179 E58.13879
G0 F3600 X90.209 Y107.179
G1 F1800 X92.348 Y109.319 E58.28975
G0 F3600 X92.914 Y109.319
G1 F1800 X90.774 Y107.179 E58.44073
G0 F3600 X91.34 Y107.179
G1 F1800 X93.48 Y109.319 E58.59172
G0 F3600 X94.045 Y109.319
G1 F1800 X91.906 Y107.179 E58.74268
G0 F3600 X92.471 Y107.179
G1 F1800 X94.611 Y109.319 E58.89366
G0 F3600 X95.177 Y109.319
G1 F1800 X93.037 Y107.179 E59.04465
G0 F3600 X93.603 Y107.179
G1 F1800 X95.742 Y109.319 E59.19561
G0 F3600 X96.308 Y109.319
G1 F1800 X94.168 Y107.179 E59.34659
G0 F3600 X94.734 Y107.179
G1 F1800 X96.874 Y109.319 E59.49758
G0 F3600 X97.44 Y109.319
G1 F1800 X95.3 Y107.179 E59.64857
G0 F3600 X95.866 Y107.179
G1 F1800 X98.005 Y109.319 E59.79952
G0 F3600 X98.571 Y109.319
G1 F1800 X96.431 Y107.179 E59.95051
G0 F3600 X96.997 Y107.179
G1 F1800 X99.137 Y109.319 E60.1015
G0 F3600 X99.702 Y109.319
G1 F1800 X97.563 Y107.179 E60.25246
G0 F3600 X98.128 Y107.179
G1 F1800 X100.268 Y109.319 E60.40344
G0 F3600 X100.834 Y109.319
G1 F1800 X98.694 Y107.179 E60.55443
G0 F3600 X99.26 Y107.179
G1 F1800 X101.399 Y109.319 E60.70539
G0 F3600 X101.965 Y109.319
G1 F1800 X99.825 Y107.179 E60.85637
G0 F3600 X100.392 Y107.18
G1 F1800 X102.531 Y109.319 E61.00729
G0 F3600 X103.096 Y109.319
G1 F1800 X100.957 Y107.18 E61.15821
G0 F3600 X101.523 Y107.18
G1 F1800 X103.662 Y109.319 E61.30913
G0 F3600 X104.228 Y109.319
G1 F1800 X102.089 Y107.18 E61.46005
G0 F3600 X102.654 Y107.18
G1 F1800 X104.793 Y109.319 E61.61096
G0 F3600 X105.359 Y109.319
G1 F1800 X103.22 Y107.18 E61.76188
G0 F3600 X103.786 Y107.18
G1 F1800 X105.925 Y109.319 E61.9128
G0 F3600 X106.49 Y109.319
G1 F1800 X104.351 Y107.18 E62.06372
G0 F3600 X104.917 Y107.18
G1 F1800 X107.056 Y109.319 E62.21464
G0 F3600 X107.622 Y109.319
G1 F1800 X105.483 Y107.18 E62.36555
G0 F3600 X106.049 Y107.18
G1 F1800 X108.188 Y109.319 E62.51647
G0 F3600 X108.753 Y109.319
G1 F1800 X106.614 Y107.18 E62.66739
G0 F3600 X107.18 Y107.18
G1 F1800 X109.319 Y109.319 E62.81831
G0 F3600 X109.885 Y109.319
G1 F1800 X107.746 Y107.18 E62.96923
G0 F3600 X108.311 Y107.18
G1 F1800 X110.45 Y109.319 E63.12014
G0 F3600 X111.016 Y109.319
G1 F1800 X108.877 Y107.18 E63.27106
G0 F3600 X109.443 Y107.18
G1 F1800 X111.582 Y109.319 E63.42198
G0 F3600 X112.147 Y109.319
G1 F1800 X110.008 Y107.18 E63.5729
G0 F3600 X110.574 Y107.18
G1 F1800 X112.713 Y109.319 E63.72382
G0 F3600 X113.069 Y109.109
G1 F1800 X111.14 Y107.18 E63.85992
G0 F3600 X111.705 Y107.18
G1 F1800 X113.069 Y108.543 E63.95612
G0 F3600 X113.069 Y107.978
G1 F1800 X112.271 Y107.18 E64.01242
G0 F3600 X112.837 Y107.18
G1 F1800 X113.069 Y107.412 E64.02879
G1 F1500 E57.52879
G0 F3600 X86.73 Y106.43
G0 X87.153 Y105.347
G0 X87.153 Y91.653
G0 X86.73 Y90.57
G0 X86.73 Y82.98
G1 F1500 E64.02879
G1 F1800 X86.73 Y90.02 E64.38002
G1 X113.27 Y90.02 E65.70411
G1 X113.27 Y86.5 E65.87972
G1 X113.27 Y82.98 E66.05533
G1 X86.73 Y82.98 E67.37942
G0 F3600 X86.929 Y89.758
G1 F1800 X86.991 Y89.819 E67.38376
G0 F3600 X87.556 Y89.819
G1 F1800 X86.929 Y89.192 E67.428
G0 F3600 X86.929 Y88.626
G1 F1800 X88.122 Y89.819 E67.51217
G0 F3600 X88.688 Y89.819
G1 F1800 X86.929 Y88.06 E67.63628
G0 F3600 X86.929 Y87.495
G1 F1800 X89.253 Y89.819 E67.80025
G0 F3600 X89.819 Y89.819
G1 F1800 X86.929 Y86.929 E68.00415
G0 F3600 X86.928 Y86.363
G1 F1800 X90.385 Y89.819 E68.24803
G0 F3600 X90.95 Y89.819
G1 F1800 X86.928 Y85.797 E68.5318
G0 F3600 X86.928 Y85.231
G1 F1800 X91.516 Y89.819 E68.85551
G0 F3600 X92.082 Y89.819
G1 F1800 X86.928 Y84.666 E69.21912
G0 F3600 X86.928 Y84.1
G1 F1800 X92.647 Y89.819 E69.62262
G0 F3600 X93.213 Y89.819
G1 F1800 X86.928 Y83.534 E70.06606
G0 F3600 X87.139 Y83.179
G1 F1800 X93.779 Y89.819 E70.53455
G0 F3600 X94.345 Y89.819
G1 F1800 X87.705 Y83.179 E71.00304
G0 F3600 X88.27 Y83.179
G1 F1800 X94.91 Y89.819 E71.47153
G0 F3600 X95.476 Y89.819
G1 F1800 X88.836 Y83.179 E71.94001
G0 F3600 X89.402 Y83.179
G1 F1800 X96.042 Y89.819 E72.4085
G0 F3600 X96.607 Y89.819
G1 F1800 X89.968 Y83.179 E72.87695
G0 F3600 X90.533 Y83.179
G1 F1800 X97.173 Y89.819 E73.34544
G0 F3600 X97.739 Y89.819
G1 F1800 X91.099 Y83.179 E73.81393
G0 F3600 X91.665 Y83.179
G1 F1800 X98.304 Y89.819 E74.28238
G0 F3600 X98.87 Y89.819
G1 F1800 X92.23 Y83.179 E74.75087
G0 F3600 X92.796 Y83.179
G1 F1800 X99.436 Y89.819 E75.21936
G0 F3600 X100.001 Y89.819
G1 F1800 X93.362 Y83.179 E75.68781
G0 F3600 X93.927 Y83.179
G1 F1800 X100.567 Y89.819 E76.1563
G0 F3600 X101.133 Y89.819
G1 F1800 X94.493 Y83.179 E76.62479
G0 F3600 X95.059 Y83.179
G1 F1800 X101.698 Y89.819 E77.09324
G0 F3600 X102.264 Y89.819
G1 F1800 X95.624 Y83.179 E77.56173
G0 F3600 X96.19 Y83.179
G1 F1800 X102.83 Y89.819 E78.03021
G0 F3600 X103.395 Y89.819
G1 F1800 X96.756 Y83.179 E78.49867
G0 F3600 X97.321 Y83.179
G1 F1800 X103.961 Y89.819 E78.96716
G0 F3600 X104.527 Y89.819
G1 F1800 X97.887 Y83.179 E79.43564
G0 F3600 X98.453 Y83.179
G1 F1800 X105.093 Y89.819 E79.90413
G0 F3600 X105.658 Y89.819
G1 F1800 X99.018 Y83.179 E80.37262
G0 F3600 X99.584 Y83.179
G1 F1800 X106.224 Y89.819 E80.84111
G0 F3600 X106.79 Y89.819
G1 F1800 X100.15 Y83.179 E81.30959
G0 F3600 X100.716 Y83.179
G1 F1800 X107.355 Y89.819 E81.77805
G0 F3600 X107.921 Y89.819
G1 F1800 X101.281 Y83.179 E82.24653
G0 F3600 X101.847 Y83.179
G1 F1800 X108.487 Y89.819 E82.71502
G0 F3600 X109.052 Y89.819
G1 F1800 X102.413 Y83.179 E83.18348
G0 F3600 X102.978 Y83.179
G1 F1800 X109.618 Y89.819 E83.65196
G0 F3600 X110.184 Y89.819
G1 F1800 X103.544 Y83.179 E84.12045
G0 F3600 X104.11 Y83.179
G1 F1800 X110.749 Y89.819 E84.5889
G0 F3600 X111.315 Y89.819
G1 F1800 X104.675 Y83.179 E85.05739
G0 F3600 X105.241 Y83.179
G1 F1800 X111.881 Y89.819 E85.52588
G0 F3600 X112.446 Y89.819
G1 F1800 X105.807 Y83.179 E85.99433
G0 F3600 X106.372 Y83.179
G1 F1800 X113.012 Y89.819 E86.46282
G0 F3600 X113.069 Y89.31
G1 F1800 X106.938 Y83.179 E86.8954
G0 F3600 X107.504 Y83.179
G1 F1800 X113.069 Y88.744 E87.28804
G0 F3600 X113.069 Y88.179
G1 F1800 X108.069 Y83.179 E87.64081
G0 F3600 X108.635 Y83.179
G1 F1800 X113.069 Y87.613 E87.95366
G0 F3600 X113.069 Y87.047
G1 F1800 X109.201 Y83.179 E88.22656
G0 F3600 X109.767 Y83.179
G1 F1800 X113.069 Y86.481 E88.45954
G0 F3600 X113.069 Y85.916
G1 F1800 X110.332 Y83.179 E88.65265
G0 F3600 X110.898 Y83.179
G1 F1800 X113.069 Y85.35 E88.80582
G0 F3600 X113.069 Y84.784
G1 F1800 X111.464 Y83.179 E88.91907
G0 F3600 X112.029 Y83.179
G1 F1800 X113.069 Y84.219 E88.99244
G0 F3600 X113.069 Y83.653
G1 F1800 X112.595 Y83.179 E89.02589
G1 F1500 E82.52589
;MESH:NONMESH
