;FLAVOR:Marlin
;TIME:1282
;Filament used: 1.57687m
;Layer height: 0.25
;MINX:45.216
;MINY:68.797
;MINZ:0.3
;MAXX:122.808
;MAXY:149.315
;MAXZ:20.05
;Generated with Cura_SteamEngine 5.0.0
M140 S60
M105
M190 S60
M104 S210
M105
M109 S210
M82 ;absolute extrusion mode
G21 ;metric values
G90 ;absolute positioning
M82 ;set extruder to absolute mode
M107 ;start with the fan off
G28 X0 Y0 ;move X/Y to min endstops
G28 Z0 ;move Z to min endstops
G1 Z15.0 F9000 ;move the platform down 15mm
G92 E0 ;zero the extruded length
G1 F200 E3 ;extrude 3mm of feed stock
G92 E0 ;zero the extruded length again
G1 F9000
;Put printing message on LCD screen
M117 Printing...
G92 E0
G92 E0
G1 F1500 E-6.5
;LAYER_COUNT:80
;LAYER:0
M107
G0 F3600 X47.036 Y95.072 Z0.3
G0 X45.216 Y98.598
;TYPE:SKIRT
G1 F1500 E0
G1 F1800 X45.226 Y97.909 E0.03438
G1 X45.274 Y97.405 E0.05964
G1 X45.4 Y96.916 E0.08483
G1 X45.601 Y96.452 E0.11006
G1 X45.873 Y96.026 E0.13527
G1 X46.209 Y95.648 E0.16051
G1 X46.6 Y95.327 E0.18574
G1 X47.036 Y95.072 E0.21094
G1 X47.508 Y94.89 E0.23618
G1 X48.062 Y94.776 E0.2644
G1 X48.829 Y94.688 E0.30292
G1 X51.591 Y94.331 E0.44186
G1 X54.321 Y93.9 E0.57975
G1 X56.961 Y93.406 E0.71374
G1 X59.643 Y92.826 E0.85064
G1 X62.326 Y92.165 E0.9885
G1 X64.943 Y91.441 E1.12397
G1 X67.571 Y90.633 E1.26113
G1 X70.174 Y89.752 E1.39824
G1 X72.74 Y88.802 E1.53475
G1 X75.268 Y87.784 E1.67071
G1 X77.793 Y86.682 E1.80816
G1 X80.249 Y85.528 E1.94354
G1 X82.696 Y84.291 E2.08033
G1 X85.135 Y82.971 E2.21869
G1 X87.494 Y81.607 E2.35464
G1 X89.804 Y80.182 E2.49005
G1 X92.09 Y78.681 E2.62649
G1 X94.359 Y77.097 E2.76455
G1 X96.544 Y75.478 E2.90022
G1 X98.702 Y73.784 E3.03709
G1 X100.742 Y72.092 E3.16932
G1 X101.206 Y71.772 E3.19744
G1 X103.518 Y70.46 E3.33006
G1 X104.823 Y69.683 E3.40584
G1 X105.277 Y69.46 E3.43107
G1 X105.76 Y69.311 E3.45629
G1 X106.142 Y69.249 E3.4756
G1 X107.352 Y69.128 E3.53626
G1 X107.795 Y69.091 E3.55844
G1 X110.352 Y68.812 E3.68677
G1 X110.858 Y68.797 E3.71203
G1 X111.359 Y68.862 E3.73723
G1 X111.706 Y68.956 E3.75517
G1 X114.328 Y69.826 E3.89299
G1 X115.194 Y70.089 E3.93814
G1 X115.73 Y70.265 E3.96629
G1 X116.197 Y70.46 E3.99154
G1 X116.626 Y70.726 E4.01672
G1 X117.5 Y71.495 E4.0748
G1 X118.282 Y72.222 E4.12807
G1 X120.004 Y73.749 E4.24289
G1 X120.354 Y74.114 E4.26812
G1 X120.643 Y74.529 E4.29335
G1 X120.808 Y74.851 E4.3114
G1 X122.192 Y77.984 E4.48228
G1 X122.515 Y78.687 E4.52088
G1 X122.689 Y79.162 E4.54612
G1 X122.786 Y79.658 E4.57133
G1 X122.807 Y80.022 E4.58952
G1 X122.808 Y84.266 E4.80126
G1 X122.768 Y84.77 E4.82648
G1 X122.566 Y85.487 E4.86364
G1 X121.377 Y88.369 E5.01918
G1 X120.409 Y90.932 E5.15587
G1 X119.515 Y93.516 E5.29228
G1 X118.701 Y96.099 E5.42739
G1 X117.944 Y98.767 E5.56576
G1 X117.27 Y101.426 E5.70261
G1 X116.671 Y104.102 E5.83942
G1 X116.155 Y106.764 E5.9747
G1 X115.709 Y109.461 E6.11108
G1 X115.34 Y112.178 E6.24788
G1 X115.045 Y114.923 E6.38561
G1 X114.832 Y117.629 E6.52103
G1 X114.694 Y120.379 E6.65841
G1 X114.633 Y123.099 E6.79414
G1 X114.651 Y125.851 E6.93144
G1 X114.744 Y128.568 E7.06707
G1 X114.919 Y131.348 E7.20604
G1 X115.114 Y133.54 E7.31583
G1 X115.231 Y134.727 E7.37534
G1 X115.297 Y135.784 E7.42818
G1 X115.271 Y137.012 E7.48946
G1 X115.126 Y138.28 E7.55313
G1 X114.867 Y139.494 E7.61506
G1 X114.474 Y140.733 E7.67991
G1 X113.987 Y141.874 E7.7418
G1 X113.4 Y142.958 E7.8033
G1 X112.707 Y143.989 E7.86528
G1 X112.519 Y144.235 E7.88072
G1 X111.844 Y145.035 E7.93295
G1 X111.025 Y145.854 E7.99073
G1 X110.113 Y146.614 E8.04996
G1 X109.005 Y147.377 E8.11708
G1 X107.963 Y147.953 E8.17647
G1 X107.667 Y148.093 E8.19281
G1 X106.665 Y148.508 E8.24692
G1 X105.524 Y148.871 E8.30665
G1 X104.349 Y149.127 E8.36665
G1 X103.076 Y149.283 E8.43064
G1 X101.831 Y149.315 E8.49277
G1 X100.605 Y149.231 E8.55408
G1 X99.384 Y149.031 E8.61581
G1 X99.07 Y148.959 E8.63188
G1 X98.029 Y148.666 E8.68583
G1 X97.154 Y148.347 E8.7323
G1 X96.559 Y148.095 E8.76453
G1 X95.67 Y147.636 E8.81445
G1 X94.736 Y147.057 E8.86927
G1 X93.724 Y146.308 E8.93209
G1 X91.864 Y144.844 E9.05018
G1 X89.693 Y143.233 E9.18505
G1 X87.445 Y141.66 E9.32194
G1 X85.156 Y140.154 E9.45864
G1 X82.817 Y138.706 E9.59588
G1 X80.463 Y137.341 E9.73164
G1 X78.065 Y136.04 E9.86775
G1 X75.604 Y134.793 E10.00539
G1 X73.139 Y133.63 E10.14137
G1 X70.602 Y132.52 E10.27953
G1 X68.073 Y131.498 E10.41561
G1 X65.513 Y130.547 E10.55186
G1 X62.94 Y129.673 E10.68743
G1 X60.285 Y128.854 E10.82605
G1 X57.67 Y128.127 E10.96146
G1 X55.041 Y127.477 E11.09657
G1 X52.314 Y126.883 E11.23581
G1 X49.611 Y126.374 E11.37303
G1 X47.905 Y126.093 E11.45929
G1 X47.414 Y125.972 E11.48452
G1 X46.948 Y125.775 E11.50976
G1 X46.52 Y125.507 E11.53496
G1 X46.139 Y125.175 E11.56017
G1 X45.814 Y124.787 E11.58542
G1 X45.556 Y124.352 E11.61065
G1 X45.368 Y123.883 E11.63586
G1 X45.257 Y123.39 E11.66107
G1 X45.217 Y122.691 E11.696
G1 X45.216 Y98.598 E12.89801
G1 F1500 E6.39801
;MESH:Cache on-off - ep 3mm v1.stl
G0 F3600 X47.751 Y98.598
G0 X48.846 Y98.598
G1 F1500 E12.89801
G0 F3600 X48.616 Y98.146
;TYPE:WALL-OUTER
G1 F1800 X48.617 Y122.745 E14.12526
G1 X63.216 Y122.745 E14.8536
G1 X63.216 Y100.446 E15.9661
G1 X63.216 Y98.146 E16.08085
G1 X48.616 Y98.146 E16.80925
G0 F3600 X48.616 Y98.346
G0 X48.996 Y98.526
G0 X50.306 Y102.946
G0 X50.716 Y102.946
G1 F1800 X50.756 Y102.825 E16.81561
G1 X50.916 Y102.746 E16.82451
G1 X60.925 Y102.746 E17.32386
G1 X61.086 Y102.825 E17.33281
G1 X61.126 Y102.946 E17.33917
G1 X61.126 Y117.809 E18.08068
G1 X61.086 Y117.93 E18.08704
G1 X61.003 Y117.994 E18.09227
G1 X60.848 Y118.009 E18.10004
G1 X50.916 Y118.009 E18.59555
G1 X50.755 Y117.929 E18.60452
G1 X50.716 Y117.809 E18.61081
G1 X50.716 Y102.946 E19.35233
G0 F3600 X50.756 Y102.825
G0 X50.821 Y102.793
G0 X50.316 Y102.946
;TYPE:WALL-INNER
G1 F1800 X50.436 Y102.585 E19.37131
G1 X50.685 Y102.392 E19.38703
G1 X50.916 Y102.346 E19.39878
G1 X60.925 Y102.346 E19.89813
G1 X61.157 Y102.391 E19.90992
G1 X61.406 Y102.585 E19.92567
G1 X61.526 Y102.946 E19.94465
G1 X61.526 Y117.809 E20.68617
G1 X61.406 Y118.17 E20.70514
G1 X61.157 Y118.363 E20.72086
G1 X60.848 Y118.409 E20.73645
G1 X50.916 Y118.409 E21.23196
G1 X50.684 Y118.363 E21.24376
G1 X50.435 Y118.169 E21.25951
G1 X50.324 Y117.913 E21.27343
G1 X50.316 Y117.809 E21.27863
G1 X50.316 Y102.946 E22.02015
G0 F3600 X50.306 Y102.946
G0 X49.026 Y98.546
G0 X49.016 Y98.546
G1 F1800 X49.017 Y122.345 E23.20749
G1 X62.816 Y122.345 E23.89592
G1 X62.816 Y100.446 E24.98847
G1 X62.816 Y98.546 E25.08326
G1 X49.016 Y98.546 E25.77174
G0 F3600 X49.026 Y98.546
G0 X49.431 Y102.949
;TYPE:SKIN
G1 F1531.9 X49.432 Y117.848 E26.64514
G1 F1655.2 X49.397 Y118.502 E26.68067
G1 F1800 X49.397 Y121.965 E26.85344
G1 X62.436 Y121.965 E27.50396
G1 X62.436 Y118.503 E27.67668
G1 F1655.2 X62.401 Y117.982 E27.70501
G1 F1538.5 X62.404 Y117.807 E27.71523
G1 F1548.4 X62.404 Y102.951 E28.57683
G1 F1666.7 X62.436 Y102.3 E28.61195
G1 F1800 X62.436 Y100.447 E28.7044
G1 X62.436 Y98.927 E28.78023
G1 X49.396 Y98.926 E29.4308
G1 X49.397 Y102.297 E29.59898
G1 F1632.7 X49.437 Y102.796 E29.62652
G1 F1512.6 X49.431 Y102.949 E29.63561
G0 F3600 X49.901 Y102.949
G1 F1655.2 X50.103 Y102.411 E29.66679
G1 F1800 X50.171 Y102.317 E29.67257
G1 X50.574 Y102.03 E29.69726
G1 X50.922 Y101.966 E29.71491
G1 X60.919 Y101.966 E30.21366
G1 X61.35 Y102.068 E30.23576
G1 X61.671 Y102.318 E30.25606
G1 F1643.8 X61.933 Y102.875 E30.28968
G1 F1528.7 X61.938 Y102.951 E30.29416
G1 F1548.4 X61.938 Y117.807 E31.15577
G1 F1575.5 X61.902 Y118.034 E31.16887
G1 F1694.1 X61.673 Y118.435 E31.19335
G1 F1800 X61.266 Y118.725 E31.21828
G1 X60.848 Y118.789 E31.23938
G1 X50.922 Y118.789 E31.73459
G1 X50.49 Y118.686 E31.75674
G1 X50.107 Y118.356 E31.78197
G1 F1647.6 X49.91 Y117.962 E31.80598
G1 F1525.4 X49.901 Y117.809 E31.815
G1 F1531.9 X49.901 Y102.949 E32.68611
G0 F3600 X62.236 Y99.571
G1 F1800 X61.791 Y99.127 E32.71747
G0 F3600 X61.226 Y99.127
G1 F1800 X62.236 Y100.136 E32.78869
G0 F3600 X62.236 Y100.702
G1 F1800 X60.66 Y99.127 E32.89985
G0 F3600 X60.094 Y99.127
G1 F1800 X62.236 Y101.268 E33.05095
G0 F3600 X62.236 Y101.833
G1 F1800 X59.529 Y99.127 E33.24191
G0 F3600 X58.963 Y99.127
G1 F1800 X62.223 Y102.386 E33.47188
G1 X62.293 Y102.456
G0 F3600 X61.06 Y101.79
G1 F1800 X58.397 Y99.127 E33.65977
G0 F3600 X57.831 Y99.126
G1 F1800 X60.47 Y101.765 E33.84597
G0 F3600 X59.904 Y101.765
G1 F1800 X57.265 Y99.126 E34.03216
G0 F3600 X56.7 Y99.126
G1 F1800 X59.338 Y101.765 E34.21832
G0 F3600 X58.773 Y101.765
G1 F1800 X56.134 Y99.126 E34.40452
G0 F3600 X55.568 Y99.126
G1 F1800 X58.207 Y101.765 E34.59071
G0 F3600 X57.641 Y101.765
G1 F1800 X55.003 Y99.126 E34.77687
G0 F3600 X54.437 Y99.126
G1 F1800 X57.076 Y101.765 E34.96307
G0 F3600 X56.51 Y101.765
G1 F1800 X53.871 Y99.126 E35.14927
G0 F3600 X53.305 Y99.125
G1 F1800 X55.944 Y101.765 E35.3355
G0 F3600 X55.379 Y101.765
G1 F1800 X52.739 Y99.125 E35.52176
G0 F3600 X52.173 Y99.125
G1 F1800 X54.813 Y101.765 E35.70803
G0 F3600 X54.247 Y101.765
G1 F1800 X51.608 Y99.125 E35.89426
G0 F3600 X51.042 Y99.125
G1 F1800 X53.682 Y101.765 E36.08053
G0 F3600 X53.116 Y101.765
G1 F1800 X50.476 Y99.125 E36.26679
G0 F3600 X49.911 Y99.125
G1 F1800 X52.55 Y101.765 E36.45302
G0 F3600 X51.985 Y101.765
G1 F1800 X49.596 Y99.376 E36.62158
G0 F3600 X49.596 Y99.942
G1 F1800 X51.419 Y101.765 E36.7502
G0 F3600 X50.863 Y101.775
G1 F1800 X49.596 Y100.508 E36.8396
G0 F3600 X49.597 Y101.074
G1 F1800 X50.411 Y101.889 E36.89706
G0 F3600 X50.085 Y102.128
G1 F1800 X49.597 Y101.64 E36.9315
G0 F3600 X49.597 Y102.205
G1 F1800 X49.865 Y102.473 E36.9504
G0 F3600 X49.654 Y118.102
G1 F1800 X49.845 Y118.293 E36.96388
G0 F3600 X49.596 Y118.61
G1 F1800 X52.75 Y121.764 E37.18641
G0 F3600 X52.185 Y121.764
G1 F1800 X49.596 Y119.175 E37.36908
G0 F3600 X49.596 Y119.741
G1 F1800 X51.619 Y121.764 E37.51181
G0 F3600 X51.053 Y121.764
G1 F1800 X49.596 Y120.307 E37.61461
G0 F3600 X49.596 Y120.872
G1 F1800 X50.488 Y121.764 E37.67755
G0 F3600 X49.922 Y121.764
G1 F1800 X49.596 Y121.438 E37.70055
G0 F3600 X50.419 Y118.867
G1 F1800 X53.316 Y121.764 E37.90495
G0 F3600 X53.882 Y121.764
G1 F1800 X51.106 Y118.988 E38.10081
G0 F3600 X51.671 Y118.988
G1 F1800 X54.447 Y121.764 E38.29667
G0 F3600 X55.013 Y121.764
G1 F1800 X52.237 Y118.988 E38.49253
G0 F3600 X52.803 Y118.988
G1 F1800 X55.579 Y121.764 E38.6884
G0 F3600 X56.144 Y121.764
G1 F1800 X53.368 Y118.988 E38.88426
G0 F3600 X53.934 Y118.988
G1 F1800 X56.71 Y121.764 E39.08012
G0 F3600 X57.276 Y121.764
G1 F1800 X54.5 Y118.988 E39.27598
G0 F3600 X55.065 Y118.988
G1 F1800 X57.842 Y121.764 E39.47188
G0 F3600 X58.407 Y121.764
G1 F1800 X55.631 Y118.988 E39.66774
G0 F3600 X56.197 Y118.988
G1 F1800 X58.973 Y121.764 E39.8636
G0 F3600 X59.539 Y121.764
G1 F1800 X56.762 Y118.988 E40.0595
G0 F3600 X57.328 Y118.988
G1 F1800 X60.104 Y121.764 E40.25536
G0 F3600 X60.67 Y121.764
G1 F1800 X57.894 Y118.988 E40.45122
G0 F3600 X58.46 Y118.988
G1 F1800 X61.236 Y121.764 E40.64708
G0 F3600 X61.801 Y121.764
G1 F1800 X59.025 Y118.988 E40.84295
G0 F3600 X59.591 Y118.988
G1 F1800 X62.236 Y121.632 E41.02953
G0 F3600 X62.236 Y121.067
G1 F1800 X60.157 Y118.988 E41.17621
G0 F3600 X60.722 Y118.988
G1 F1800 X62.236 Y120.501 E41.283
G0 F3600 X62.236 Y119.935
G1 F1800 X61.233 Y118.933 E41.35373
G0 F3600 X61.605 Y118.74
G1 F1800 X62.236 Y119.37 E41.39822
G0 F3600 X62.236 Y118.804
G1 F1800 X61.886 Y118.455 E41.42288
G0 F3600 X62.19 Y118.192
G1 F1800 X62.112 Y118.115 E41.42834
G1 F1500 E34.92834
;MESH:suport_potentio21.stl
G0 F3600 X62.992 Y122.522
G0 X64.081 Y122.522
G0 X91.542 Y134.837
G0 X92.346 Y136.095
;TYPE:WALL-OUTER
G1 F1500 E41.42834
G1 F1643.8 X92.377 Y137.057 E41.48092
G1 F1813.6 X92.471 Y137.935 E41.52465
G1 F1879.9 X92.642 Y138.588 E41.55689
G1 F1800 X93.002 Y139.719 E41.61611
G1 X93.258 Y140.292 E41.64742
G1 X93.834 Y141.362 E41.70805
G1 X94.355 Y142.106 E41.75336
G1 X94.719 Y142.539 E41.78158
G1 X95.08 Y142.946 E41.80872
G1 X95.702 Y143.539 E41.8516
G1 X96.436 Y144.116 E41.89818
G1 X97.193 Y144.603 E41.94308
G1 X98.047 Y145.047 E41.99111
G1 X98.884 Y145.382 E42.03608
G1 X99.81 Y145.656 E42.08426
G1 X100.326 Y145.756 E42.11048
G1 X100.8 Y145.841 E42.13451
G1 X101.654 Y145.923 E42.17731
G1 X102.583 Y145.923 E42.22366
G1 X103.512 Y145.834 E42.27022
G1 X104.427 Y145.656 E42.31673
G1 X105.28 Y145.406 E42.36107
G1 X106.189 Y145.048 E42.40981
G1 X107.019 Y144.62 E42.4564
G1 X107.776 Y144.133 E42.50131
G1 X108.536 Y143.539 E42.54943
G1 X109.188 Y142.917 E42.59439
G1 X109.822 Y142.191 E42.64248
G1 X110.366 Y141.427 E42.68927
G1 X110.828 Y140.623 E42.73553
G1 X111.216 Y139.774 E42.7821
G1 X111.527 Y138.881 E42.82928
G1 X111.741 Y137.987 E42.87514
G1 X111.824 Y137.397 E42.90486
G1 X111.907 Y136.302 E42.95965
G1 X111.913 Y136.173 E42.96609
G1 X111.878 Y135.278 E43.01078
G1 X111.751 Y134.355 E43.05726
G1 X111.633 Y133.834 E43.08391
G1 X111.353 Y132.894 E43.13285
G1 X111.184 Y132.423 E43.15781
G1 X110.919 Y131.844 E43.18958
G1 X110.404 Y130.908 E43.24288
G1 X109.863 Y130.137 E43.28987
G1 X109.514 Y129.723 E43.31688
G1 X109.159 Y129.325 E43.34349
G1 X108.533 Y128.728 E43.38665
G1 X107.801 Y128.153 E43.43309
G1 X107.019 Y127.649 E43.4795
G1 X106.216 Y127.234 E43.5246
G1 X105.338 Y126.879 E43.57185
G1 X104.457 Y126.621 E43.61765
G1 X103.512 Y126.435 E43.6657
G1 X102.583 Y126.347 E43.71225
G1 X101.654 Y126.346 E43.7586
G1 X100.725 Y126.435 E43.80516
G1 X99.81 Y126.612 E43.85166
G1 X98.928 Y126.871 E43.89752
G1 X98.119 Y127.192 E43.94094
G1 X97.385 Y127.563 E43.98197
G1 X96.498 Y128.113 E44.03404
G1 X95.76 Y128.684 E44.08059
G1 X95.372 Y129.043 E44.10697
G1 X94.979 Y129.428 E44.13441
G1 X94.415 Y130.077 E44.17731
G1 X93.889 Y130.816 E44.22256
G1 X93.409 Y131.646 E44.2704
G1 X93.021 Y132.495 E44.31697
G1 X92.711 Y133.388 E44.36413
G1 X92.496 Y134.282 E44.41
G1 F1760.4 X92.398 Y135.02 E44.44798
G1 F1690.1 X92.372 Y135.557 E44.47655
G1 F1632.7 X92.346 Y136.095 E44.50617
G0 F3600 X92.352 Y136.295
G0 X92.795 Y136.106
G1 F1643.8 X92.805 Y135.227 E44.5542
G1 F1702.1 X92.811 Y135.079 E44.56201
G1 F1760.4 X93.017 Y134.909 E44.57564
G1 F1800 X94.519 Y134.908 E44.65057
G1 X94.649 Y134.957 E44.6575
G1 F1454.5 X94.814 Y135.109 E44.67135
G1 F1239.2 X94.804 Y135.628 E44.70897
G1 F1283.4 X94.794 Y136.147 E44.74529
G1 F1274.3 X94.808 Y137.02 E44.80682
G1 F1472.4 X94.72 Y137.771 E44.85294
G1 F1800 X94.72 Y137.847 E44.85673
G1 X94.645 Y138.065 E44.86823
G1 X94.519 Y138.109 E44.87489
G1 X93.019 Y138.109 E44.94972
G1 F1884.8 X92.842 Y137.953 E44.96096
G1 F1818.2 X92.805 Y137.047 E45.00575
G1 F1643.8 X92.795 Y136.106 E45.05716
G0 F3600 X92.797 Y135.906
G1 F1500 E38.55716
G0 F3600 X92.59 Y135.91
G0 X94.949 Y136.158
G1 F1500 E45.05716
G0 F3600 X95.346 Y136.176
G1 F1278.9 X95.378 Y135.342 E45.11577
G1 F1235 X95.401 Y135.159 E45.12918
G1 F1454.5 X95.592 Y134.617 E45.16466
G1 F1800 X95.785 Y133.965 E45.19858
G1 X96.109 Y133.172 E45.24132
G1 X96.515 Y132.463 E45.28208
G1 X96.981 Y131.833 E45.32118
G1 X97.501 Y131.278 E45.35912
G1 X98.088 Y130.782 E45.39746
G1 X98.771 Y130.328 E45.43838
G1 X99.446 Y129.99 E45.47604
G1 X100.183 Y129.72 E45.5152
G1 X100.951 Y129.535 E45.55461
G1 X101.686 Y129.448 E45.59153
G1 X102.516 Y129.446 E45.63294
G1 X103.261 Y129.533 E45.67036
G1 X104.024 Y129.708 E45.70942
G1 X104.752 Y129.976 E45.74812
G1 X105.419 Y130.304 E45.7852
G1 X106.122 Y130.761 E45.82704
G1 X106.705 Y131.247 E45.8649
G1 X107.238 Y131.814 E45.90373
G1 X107.692 Y132.417 E45.94138
G1 X108.109 Y133.132 E45.98268
G1 X108.413 Y133.838 E46.02103
G1 X108.634 Y134.575 E46.05941
G1 X108.77 Y135.338 E46.09808
G1 X108.819 Y136.12 E46.13717
G1 X108.78 Y136.83 E46.17265
G1 X108.684 Y137.429 E46.20291
